flaticon/interaction/file-11.svg

<svg xmlns="http://www.w3.org/2000/svg" width="32" height="32" viewBox="0 0 24 24">
    <path d="M5 9.601562L15 9.601562C15.222656 9.601562 15.398438 9.421875 15.398438 9.199219 15.398438 8.980469 15.222656 8.800781 15 8.800781L5 8.800781C4.777344 8.800781 4.601562 8.980469 4.601562 9.199219 4.601562 9.421875 4.777344 9.601562 5 9.601562zM5 6.398438L9 6.398438C9.222656 6.398438 9.398438 6.222656 9.398438 6 9.398438 5.777344 9.222656 5.601562 9 5.601562L5 5.601562C4.777344 5.601562 4.601562 5.777344 4.601562 6 4.601562 6.222656 4.777344 6.398438 5 6.398438zM5 12.800781L15 12.800781C15.222656 12.800781 15.398438 12.621094 15.398438 12.398438 15.398438 12.179688 15.222656 12 15 12L5 12C4.777344 12 4.601562 12.179688 4.601562 12.398438 4.601562 12.621094 4.777344 12.800781 5 12.800781zM11.800781 15.199219L5 15.199219C4.777344 15.199219 4.601562 15.378906 4.601562 15.601562 4.601562 15.820312 4.777344 16 5 16L11.800781 16C12.019531 16 12.199219 15.820312 12.199219 15.601562 12.199219 15.378906 12.019531 15.199219 11.800781 15.199219zM10.601562 18.398438L5 18.398438C4.777344 18.398438 4.601562 18.578125 4.601562 18.800781 4.601562 19.019531 4.777344 19.199219 5 19.199219L10.601562 19.199219C10.820312 19.199219 11 19.019531 11 18.800781 11 18.578125 10.820312 18.398438 10.601562 18.398438zM10.601562 18.398438"/>
    <path d="M 19.398438 13.746094 L 19.398438 5.835938 L 13.566406 0 L 0.601562 0 L 0.601562 24 L 18.199219 24 C 21.066406 24 23.398438 21.667969 23.398438 18.800781 C 23.398438 16.347656 21.691406 14.289062 19.398438 13.746094 Z M 13.800781 1.367188 L 18.035156 5.601562 L 13.800781 5.601562 Z M 15.429688 23.199219 L 1.398438 23.199219 L 1.398438 0.800781 L 13 0.800781 L 13 6.398438 L 18.601562 6.398438 L 18.601562 13.617188 C 18.464844 13.605469 18.332031 13.601562 18.199219 13.601562 C 15.332031 13.601562 13 15.933594 13 18.800781 C 13 18.960938 13.011719 19.117188 13.023438 19.273438 C 13.027344 19.308594 13.03125 19.34375 13.035156 19.382812 C 13.050781 19.535156 13.074219 19.6875 13.105469 19.835938 C 13.109375 19.851562 13.113281 19.871094 13.117188 19.886719 C 13.144531 20.023438 13.179688 20.15625 13.21875 20.285156 C 13.230469 20.320312 13.238281 20.351562 13.25 20.382812 C 13.292969 20.523438 13.34375 20.664062 13.402344 20.800781 C 13.410156 20.824219 13.421875 20.847656 13.433594 20.875 C 13.484375 20.992188 13.542969 21.109375 13.601562 21.222656 C 13.617188 21.25 13.628906 21.277344 13.644531 21.304688 C 13.714844 21.429688 13.789062 21.554688 13.871094 21.675781 C 13.886719 21.703125 13.90625 21.730469 13.925781 21.757812 C 14 21.863281 14.078125 21.964844 14.15625 22.0625 C 14.171875 22.082031 14.1875 22.101562 14.203125 22.121094 C 14.292969 22.234375 14.390625 22.339844 14.492188 22.441406 C 14.519531 22.46875 14.542969 22.492188 14.570312 22.515625 C 14.667969 22.613281 14.765625 22.703125 14.871094 22.792969 C 14.882812 22.800781 14.890625 22.808594 14.898438 22.816406 C 15.011719 22.910156 15.128906 22.996094 15.25 23.078125 C 15.28125 23.101562 15.308594 23.121094 15.339844 23.140625 C 15.371094 23.160156 15.402344 23.179688 15.429688 23.199219 Z M 18.199219 23.199219 C 15.773438 23.199219 13.800781 21.226562 13.800781 18.800781 C 13.800781 16.375 15.773438 14.398438 18.199219 14.398438 C 18.324219 14.398438 18.449219 14.410156 18.570312 14.417969 C 18.6875 14.429688 18.808594 14.445312 18.933594 14.464844 L 19.109375 14.496094 C 21.101562 14.917969 22.601562 16.6875 22.601562 18.800781 C 22.601562 21.226562 20.625 23.199219 18.199219 23.199219 Z M 18.199219 23.199219"/>
    <path d="M 20.601562 18.398438 L 15.800781 18.398438 C 15.578125 18.398438 15.398438 18.578125 15.398438 18.800781 C 15.398438 19.019531 15.578125 19.199219 15.800781 19.199219 L 20.601562 19.199219 C 20.820312 19.199219 21 19.019531 21 18.800781 C 21 18.578125 20.820312 18.398438 20.601562 18.398438 Z M 20.601562 18.398438"/>
</svg>

<svg xmlns="http://www.w3.org/2000/svg" width="32" height="32" viewBox="0 0 24 24">
    <path d="M5 9.602h10c.223 0 .398-.18.398-.403A.398.398 0 0 0 15 8.801H5a.398.398 0 0 0-.398.398c0 .223.175.403.398.403zm0 0M5 6.398h4A.395.395 0 0 0 9.398 6 .395.395 0 0 0 9 5.602H5A.395.395 0 0 0 4.602 6c0 .223.175.398.398.398zm0 0M5 12.8h10c.223 0 .398-.179.398-.402A.398.398 0 0 0 15 12H5a.398.398 0 0 0-.398.398c0 .223.175.403.398.403zm0 0M11.8 15.2H5a.398.398 0 0 0-.398.402c0 .218.175.398.398.398h6.8a.4.4 0 0 0 0-.8zm0 0M10.602 18.398H5a.398.398 0 0 0-.398.403c0 .219.175.398.398.398h5.602a.4.4 0 0 0 0-.8zm0 0"/>
    <path d="M19.398 13.746v-7.91L13.566 0H.602v24h17.597c2.867 0 5.2-2.332 5.2-5.2a5.201 5.201 0 0 0-4-5.054zM13.801 1.367l4.234 4.235h-4.234zM15.43 23.2H1.398V.801H13v5.597h5.602v7.22A5.205 5.205 0 0 0 13 18.801c0 .159.012.315.023.471l.012.11c.016.152.04.305.07.453l.012.05c.028.137.063.27.102.4.011.034.02.066.031.097.043.14.094.281.152.418.008.023.02.047.032.074.05.117.109.234.168.348.015.027.027.054.043.082a5.237 5.237 0 0 0 .558.816 3.752 3.752 0 0 0 .367.395c.098.097.196.187.301.277.012.008.02.016.027.023.114.094.23.18.352.262.031.024.059.043.09.063l.09.058zm2.77 0a4.403 4.403 0 0 1-4.4-4.398 4.406 4.406 0 0 1 4.4-4.403c.124 0 .25.012.37.02.117.012.239.027.364.047l.175.031a4.41 4.41 0 0 1 3.493 4.305 4.406 4.406 0 0 1-4.403 4.398zm0 0"/>
    <path d="M20.602 18.398H15.8a.401.401 0 0 0 0 .8l4.8.001a.4.4 0 0 0 0-.8zm0 0"/>
</svg>
